images/analytics_icon.svg

<?xml version="1.0" encoding="UTF-8" standalone="no"?>
<!-- Generator: Adobe Illustrator 20.0.0, SVG Export Plug-In . SVG Version: 6.00 Build 0)  -->

<svg
   xmlns:dc="http://purl.org/dc/elements/1.1/"
   xmlns:cc="http://creativecommons.org/ns#"
   xmlns:rdf="http://www.w3.org/1999/02/22-rdf-syntax-ns#"
   xmlns:svg="http://www.w3.org/2000/svg"
   xmlns="http://www.w3.org/2000/svg"
   xmlns:sodipodi="http://sodipodi.sourceforge.net/DTD/sodipodi-0.dtd"
   xmlns:inkscape="http://www.inkscape.org/namespaces/inkscape"
   version="1.1"
   id="Layer_1"
   x="0px"
   y="0px"
   viewBox="0 0 97.1 81"
   style="enable-background:new 0 0 97.1 81;"
   xml:space="preserve"
   inkscape:version="0.91 r13725"
   sodipodi:docname="analytics_icon.svg"><metadata
     id="metadata19"><rdf:RDF><cc:Work
         rdf:about=""><dc:format>image/svg+xml</dc:format><dc:type
           rdf:resource="http://purl.org/dc/dcmitype/StillImage" /></cc:Work></rdf:RDF></metadata><defs
     id="defs17" /><sodipodi:namedview
     pagecolor="#ffffff"
     bordercolor="#666666"
     borderopacity="1"
     objecttolerance="10"
     gridtolerance="10"
     guidetolerance="10"
     inkscape:pageopacity="0"
     inkscape:pageshadow="2"
     inkscape:window-width="1920"
     inkscape:window-height="987"
     id="namedview15"
     showgrid="false"
     inkscape:zoom="5.8271605"
     inkscape:cx="81.769594"
     inkscape:cy="46.154976"
     inkscape:window-x="0"
     inkscape:window-y="0"
     inkscape:window-maximized="1"
     inkscape:current-layer="Layer_1" /><style
     type="text/css"
     id="style3">
	.st0{fill:none;stroke:#A09D9E;stroke-width:2;}
	.st1{fill:none;stroke:#00C463;stroke-width:2;}
	.st2{fill:#00C463;stroke:#00C463;stroke-width:2;}
	.st3{fill:#A09D9E;}
	.st4{fill:none;stroke:#00C463;stroke-width:2;stroke-miterlimit:10;}
	.st5{fill:#00C463;}
</style><path
     style="fill:none;stroke:#a09d9e;stroke-width:2"
     inkscape:connector-curvature="0"
     id="path7"
     d="m 4.8,61 10.8,0 c 2.1,0 3.8,2.3 3.8,5.1 l 0,8.9 c 0,2.8 -1.7,5.1 -3.8,5.1 l -10.8,0 C 2.7,80 1,77.7 1,74.9 L 1,66 c 0,-2.8 1.7,-5 3.8,-5 z"
     class="st0" /><path
     style="fill:none;stroke:#a09d9e;stroke-width:2"
     inkscape:connector-curvature="0"
     id="path9"
     d="m 55.9,14.6 10.8,0 c 2.1,0 3.8,2.3 3.8,5.1 l 0,55.2 c 0,2.8 -1.7,5.1 -3.8,5.1 l -10.8,0 c -2.1,0 -3.8,-2.3 -3.8,-5.1 l 0,-55.2 c 0,-2.8 1.7,-5.1 3.8,-5.1 z"
     class="st0" /><path
     style="fill:#ffffff;stroke:#fd672f;stroke-width:2;stroke-opacity:0.94117647"
     d="M 81.4,1 92.2,1 C 94.3,1 96,3.3 96,6.1 l 0,68.8 c 0,2.8 -1.7,5.1 -3.8,5.1 l -10.8,0 c -2.1,0 -3.8,-2.3 -3.8,-5.1 l 0,-68.8 C 77.6,3.3 79.3,1 81.4,1 Z"
     id="path11" /><path
     style="fill:none;stroke:#a09d9e;stroke-width:2"
     inkscape:connector-curvature="0"
     id="path13"
     d="m 30.4,44.6 10.8,0 c 2.1,0 3.8,2.3 3.8,5.1 l 0,25.2 c 0,2.8 -1.7,5.1 -3.8,5.1 l -10.8,0 c -2.1,0 -3.8,-2.3 -3.8,-5.1 l 0,-25.2 c -0.1,-2.8 1.6,-5.1 3.8,-5.1 z"
     class="st0" /></svg>

<?xml version="1.0" encoding="utf-8"?>
<!-- Generator: Adobe Illustrator 20.0.0, SVG Export Plug-In . SVG Version: 6.00 Build 0)  -->
<svg version="1.1" id="Layer_1" xmlns="http://www.w3.org/2000/svg" xmlns:xlink="http://www.w3.org/1999/xlink" x="0px" y="0px"
	 viewBox="0 0 97.1 81" style="enable-background:new 0 0 97.1 81;" xml:space="preserve">
<style type="text/css">
	.st0{fill:none;stroke:#A09D9E;stroke-width:2;}
	.st1{fill:none;stroke:#00C463;stroke-width:2;}
	.st2{fill:#00C463;stroke:#00C463;stroke-width:2;}
	.st3{fill:#A09D9E;}
	.st4{fill:none;stroke:#00C463;stroke-width:2;stroke-miterlimit:10;}
	.st5{fill:#00C463;}
</style>
<g>
	<path class="st0" d="M4.8,61h10.8c2.1,0,3.8,2.3,3.8,5.1v8.9c0,2.8-1.7,5.1-3.8,5.1H4.8C2.7,80,1,77.7,1,74.9V66
		C1,63.2,2.7,61,4.8,61z"/>
	<path class="st0" d="M55.9,14.6h10.8c2.1,0,3.8,2.3,3.8,5.1v55.2c0,2.8-1.7,5.1-3.8,5.1H55.9c-2.1,0-3.8-2.3-3.8-5.1V19.7
		C52.1,16.9,53.8,14.6,55.9,14.6z"/>
	<path class="st1" d="M81.4,1h10.8c2.1,0,3.8,2.3,3.8,5.1v68.8c0,2.8-1.7,5.1-3.8,5.1H81.4c-2.1,0-3.8-2.3-3.8-5.1V6.1
		C77.6,3.3,79.3,1,81.4,1z"/>
	<path class="st0" d="M30.4,44.6h10.8c2.1,0,3.8,2.3,3.8,5.1v25.2c0,2.8-1.7,5.1-3.8,5.1H30.4c-2.1,0-3.8-2.3-3.8-5.1V49.7
		C26.5,46.9,28.2,44.6,30.4,44.6z"/>
</g>
</svg>
